public/logo.svg

<svg width="426" height="257" viewBox="0 0 426 257" fill="none" xmlns="http://www.w3.org/2000/svg">
<path d="M153.222 257.004L160.062 240.36L145.698 204.032H157.098L165.534 228.58L174.578 204.032H185.902L164.394 257.004H153.222Z" fill="#188706"/>
<path d="M139.138 242.336C133.894 242.336 129.866 239.22 129.866 232.228V188.528H140.126V231.164C140.126 232.912 141.038 233.368 142.558 233.368C143.318 233.368 144.23 233.216 145.218 232.988V241.12C143.014 241.956 140.886 242.336 139.138 242.336Z" fill="#188706"/>
<path d="M117.985 242.336C112.741 242.336 108.713 239.22 108.713 232.228V188.528H118.973V231.164C118.973 232.912 119.885 233.368 121.405 233.368C122.165 233.368 123.077 233.216 124.065 232.988V241.12C121.861 241.956 119.733 242.336 117.985 242.336Z" fill="#188706"/>
<path d="M89.0505 197.876V188.528H99.6905V197.876H89.0505ZM89.2025 241.5V204.032H99.5385V241.5H89.2025Z" fill="#188706"/>
<path d="M66.9179 203.196C75.4299 203.196 80.4459 208.288 80.4459 216.952V241.5H70.1859V219.536C70.1859 214.52 68.0579 212.164 63.6499 212.164C57.6459 212.164 55.9739 217.028 55.9739 227.212V241.5H45.6379V188.528H55.9739V207.908C58.4059 204.716 62.1299 203.196 66.9179 203.196Z" fill="#188706"/>
<path d="M4.104 241.5V188.528H22.04C34.124 188.528 40.28 193.62 40.28 203.956C40.28 214.368 33.972 219.84 22.04 219.84H14.744V241.5H4.104ZM14.744 210.036H20.976C26.752 210.036 29.564 208.592 29.564 204.108C29.564 199.7 26.98 198.332 20.976 198.332H14.744V210.036Z" fill="#188706"/>
<path d="M238.51 130.196C247.098 130.196 252.038 135.364 252.038 143.952V168.5H241.778V147.22C241.778 144.484 241.778 139.164 235.318 139.164C227.566 139.164 227.566 146.84 227.566 152.236V168.5H217.23V131.032H227.566V134.908C230.302 131.412 234.254 130.196 238.51 130.196Z" fill="#188706"/>
<path d="M210.793 149.652C210.793 150.792 210.717 151.856 210.565 153.224H185.409C185.865 157.176 188.525 159.988 193.921 159.988C197.037 159.988 200.001 158.924 202.357 156.112L209.501 162.42C205.473 166.904 200.305 169.336 193.845 169.336C180.469 169.336 175.149 159.76 175.149 149.956C175.149 140.38 180.317 130.196 193.237 130.196C204.941 130.196 210.793 138.708 210.793 149.652ZM185.333 145.396H200.989C200.837 141.292 197.417 138.784 193.161 138.784C187.917 138.784 185.789 142.356 185.333 145.396Z" fill="#188706"/>
<path d="M171.828 149.652C171.828 150.792 171.752 151.856 171.6 153.224H146.444C146.9 157.176 149.56 159.988 154.956 159.988C158.072 159.988 161.036 158.924 163.392 156.112L170.536 162.42C166.508 166.904 161.34 169.336 154.88 169.336C141.504 169.336 136.184 159.76 136.184 149.956C136.184 140.38 141.352 130.196 154.272 130.196C165.976 130.196 171.828 138.708 171.828 149.652ZM146.368 145.396H162.024C161.872 141.292 158.452 138.784 154.196 138.784C148.952 138.784 146.824 142.356 146.368 145.396Z" fill="#188706"/>
<path d="M130.272 130.196C132.78 130.196 135.06 130.88 137.568 132.476L132.628 141.672C131.488 140.912 129.74 140.38 127.916 140.38C123.128 140.38 120.468 143.496 120.468 150.336V168.5H110.132V131.032H120.544V136.96C122.216 132.704 126.168 130.196 130.272 130.196Z" fill="#188706"/>
<path d="M78.815 139.468H101.159V168.5H93.635L92.419 163.18C89.151 167.664 83.679 169.792 76.991 169.792C61.487 169.792 50.771 158.468 50.771 142.204C50.771 126.092 61.259 114.16 76.991 114.16C87.707 114.16 96.827 119.632 100.855 129.968L90.975 133.844C88.695 127.536 83.451 124.344 76.839 124.344C67.415 124.344 61.487 130.652 61.487 141.976C61.487 153.756 67.947 159.532 77.751 159.532C85.959 159.532 90.443 155.504 90.443 149.88V149.12H78.815V139.468Z" fill="#188706"/>
<path d="M47.88 164.928L40.584 171.464L33.896 163.788C29.488 167.436 24.092 169.412 17.936 169.412C7.98 169.412 0 164.776 0 155.884C0 147.98 5.928 143.344 12.084 139.62C9.804 137.416 6.004 133.16 6.004 127.536C6.004 119.556 13.756 114.844 21.052 114.844C28.728 114.844 35.34 120.24 35.34 127.536C35.34 133.54 31.388 137.72 26.524 141.216L33.44 148.816C34.428 146.46 35.112 143.8 35.568 140.912L45.144 142.204C44.156 147.676 42.484 152.388 40.128 156.34L47.88 164.928ZM15.96 127.46C15.96 129.968 18.316 133.236 19.836 134.984C23.332 132.78 25.84 130.5 25.84 127.536C25.84 125.104 24.32 122.9 21.128 122.9C18.392 122.9 15.96 124.572 15.96 127.46ZM17.404 160.672C21.508 160.672 25.004 159.304 27.816 156.872L18.62 146.384C13.908 149.424 10.032 152.312 10.032 156.112C10.032 159.304 13.148 160.672 17.404 160.672Z" fill="#188706"/>
<path d="M176.983 57.1963C185.571 57.1963 190.511 62.3643 190.511 70.9523V95.5003H180.251V74.2203C180.251 71.4843 180.251 66.1643 173.791 66.1643C166.039 66.1643 166.039 73.8403 166.039 79.2363V95.5003H155.703V58.0323H166.039V61.9083C168.775 58.4123 172.727 57.1963 176.983 57.1963Z" fill="#188706"/>
<path d="M130.595 57.1963C140.855 57.1963 147.163 62.8203 147.163 71.7883V95.5003H137.739L136.979 91.1683C134.319 94.9683 130.139 96.3363 126.339 96.3363C118.207 96.3363 112.355 91.0923 112.355 83.7203C112.355 79.3123 114.331 76.1203 117.751 74.3723C120.183 73.1563 123.223 72.6243 127.023 72.6243H136.903V71.7883C136.903 68.3683 134.395 66.1643 130.139 66.1643C126.795 66.1643 123.603 67.6083 120.563 71.0283L113.115 64.7963C117.675 59.6283 123.907 57.1963 130.595 57.1963ZM128.011 87.8243C132.799 87.8243 136.827 84.5563 136.903 80.2243H128.467C126.339 80.2243 124.895 80.5283 123.983 81.2123C123.071 81.8203 122.615 82.7323 122.615 83.8723C122.615 86.1523 124.515 87.8243 128.011 87.8243Z" fill="#188706"/>
<path d="M109.262 76.6523C109.262 77.7923 109.186 78.8563 109.034 80.2243H83.8779C84.3339 84.1763 86.9939 86.9883 92.3899 86.9883C95.5059 86.9883 98.4699 85.9243 100.826 83.1123L107.97 89.4203C103.942 93.9043 98.7739 96.3363 92.3139 96.3363C78.9379 96.3363 73.6179 86.7603 73.6179 76.9563C73.6179 67.3803 78.7859 57.1963 91.7059 57.1963C103.41 57.1963 109.262 65.7083 109.262 76.6523ZM83.8019 72.3963H99.4579C99.3059 68.2923 95.8859 65.7843 91.6299 65.7843C86.3859 65.7843 84.2579 69.3563 83.8019 72.3963Z" fill="#188706"/>
<path d="M64.4734 96.3363C59.2294 96.3363 55.2014 93.2203 55.2014 86.2283V42.5283H65.4614V85.1643C65.4614 86.9123 66.3734 87.3683 67.8934 87.3683C68.6534 87.3683 69.5654 87.2163 70.5534 86.9883V95.1203C68.3494 95.9563 66.2214 96.3363 64.4734 96.3363Z" fill="#188706"/>
<path d="M26.5239 96.7922C10.7159 96.7922 0.379883 85.8482 0.379883 68.9762C0.379883 52.0282 10.6399 41.1602 26.4479 41.1602C37.9239 41.1602 46.5119 46.8602 50.3879 56.9682L40.5079 60.8442C38.3039 54.5362 33.2879 51.3442 26.4479 51.3442C16.7199 51.3442 11.0959 57.6522 11.0959 68.9002C11.0959 80.1482 16.8719 86.5322 26.5239 86.5322C33.5159 86.5322 38.4559 83.2642 40.5079 76.8042L50.5399 80.6042C46.8159 91.0162 38.0759 96.7922 26.5239 96.7922Z" fill="#188706"/>
<path fill-rule="evenodd" clip-rule="evenodd" d="M287.024 37.5L287.024 239.5L274.024 239.5L274.024 37.5L287.024 37.5Z" fill="#59B322"/>
<path fill-rule="evenodd" clip-rule="evenodd" d="M328.573 159L328.573 238.752L315.573 238.752L315.573 159L328.573 159Z" fill="#59B322"/>
<path fill-rule="evenodd" clip-rule="evenodd" d="M414.569 159L414.569 238.752L401.569 238.752L401.569 159L414.569 159Z" fill="#59B322"/>
<path fill-rule="evenodd" clip-rule="evenodd" d="M301.024 198.637H424.907V211.637H301.024V198.637Z" fill="#59B322"/>
<path fill-rule="evenodd" clip-rule="evenodd" d="M301.024 178.19H424.907V191.19H301.024V178.19Z" fill="#59B322"/>
<path fill-rule="evenodd" clip-rule="evenodd" d="M301.024 157.744H424.907V170.744H301.024V157.744Z" fill="#59B322"/>
<path fill-rule="evenodd" clip-rule="evenodd" d="M202.024 228.5L425.024 228.5L425.024 241.5L202.024 241.5L202.024 228.5Z" fill="#59B322"/>
<path fill-rule="evenodd" clip-rule="evenodd" d="M256.868 55.957L287.868 86.957L278.675 96.1494L247.675 65.1494L256.868 55.957Z" fill="#59B322"/>
<path fill-rule="evenodd" clip-rule="evenodd" d="M315.217 67.6934L283.217 99.6934L274.025 90.501L306.025 58.501L315.217 67.6934Z" fill="#59B322"/>
<path fill-rule="evenodd" clip-rule="evenodd" d="M280.024 13C252.631 13 230.524 34.9929 230.524 62C230.524 89.0071 252.631 111 280.024 111C307.417 111 329.524 89.0071 329.524 62C329.524 34.9929 307.417 13 280.024 13ZM217.524 62C217.524 27.7035 245.561 0 280.024 0C314.487 0 342.524 27.7035 342.524 62C342.524 96.2965 314.487 124 280.024 124C245.561 124 217.524 96.2965 217.524 62Z" fill="#59B322"/>
<path fill-rule="evenodd" clip-rule="evenodd" d="M370.521 65C363.372 65 357.466 70.3645 356.625 77.2845L355.93 83H338.846C335.84 91.2854 331.11 98.7436 325.095 104.954C327.467 107.45 330.816 109 334.521 109H392.521C399.701 109 405.521 103.18 405.521 96C405.521 88.8203 399.701 83 392.521 83H385.113L384.418 77.2845C383.577 70.3645 377.671 65 370.521 65ZM345.059 70C348.767 59.5117 358.763 52 370.521 52C382.369 52 392.428 59.6263 396.067 70.2397C408.749 71.9689 418.521 82.8432 418.521 96C418.521 110.359 406.881 122 392.521 122H334.521C323.921 122 314.816 115.657 310.769 106.586L308.796 102.165L312.467 99.0092C319.8 92.7038 325.227 84.3138 327.821 74.7959L329.097 70.111L333.952 70.0061C334.141 70.0021 334.331 70 334.521 70H345.059Z" fill="#59B322"/>
<path fill-rule="evenodd" clip-rule="evenodd" d="M238.024 193.5L238.024 239.5L225.024 239.5L225.024 193.5L238.024 193.5Z" fill="#59B322"/>
<path fill-rule="evenodd" clip-rule="evenodd" d="M213.291 204.807L240.291 231.807L231.098 240.999L204.098 213.999L213.291 204.807Z" fill="#59B322"/>
<path fill-rule="evenodd" clip-rule="evenodd" d="M259.216 213.692L232.216 240.692L223.024 231.5L250.024 204.5L259.216 213.692Z" fill="#59B322"/>
</svg>

<svg xmlns="http://www.w3.org/2000/svg" width="426" height="257" fill="none" xmlns:v="https://vecta.io/nano"><g fill="#188706"><path d="M153.222 257.004l6.84-16.644-14.364-36.328h11.4l8.436 24.548 9.044-24.548h11.324l-21.508 52.972h-11.172z"/><use href="#B"/><use href="#B" x="-21.153"/><path d="M89.051 197.876v-9.348h10.64v9.348h-10.64zm.152 43.624v-37.468h10.336V241.5H89.203zm-22.285-38.304c8.512 0 13.528 5.092 13.528 13.756V241.5h-10.26v-21.964c0-5.016-2.128-7.372-6.536-7.372-6.004 0-7.676 4.864-7.676 15.048V241.5H45.638v-52.972h10.336v19.38c2.432-3.192 6.156-4.712 10.944-4.712zM4.104 241.5v-52.972H22.04c12.084 0 18.24 5.092 18.24 15.428 0 10.412-6.308 15.884-18.24 15.884h-7.296v21.66H4.104zm10.64-31.464h6.232c5.776 0 8.588-1.444 8.588-5.928 0-4.408-2.584-5.776-8.588-5.776h-6.232v11.704zm223.766-79.84c8.588 0 13.528 5.168 13.528 13.756V168.5h-10.26v-21.28c0-2.736 0-8.056-6.46-8.056-7.752 0-7.752 7.676-7.752 13.072V168.5H217.23v-37.468h10.336v3.876c2.736-3.496 6.688-4.712 10.944-4.712z"/><use href="#C"/><use href="#C" x="-38.965"/><path d="M130.272 130.196c2.508 0 4.788.684 7.296 2.28l-4.94 9.196c-1.14-.76-2.888-1.292-4.712-1.292-4.788 0-7.448 3.116-7.448 9.956V168.5h-10.336v-37.468h10.412v5.928c1.672-4.256 5.624-6.764 9.728-6.764zm-51.457 9.272h22.344V168.5h-7.524l-1.216-5.32c-3.268 4.484-8.74 6.612-15.428 6.612-15.504 0-26.22-11.324-26.22-27.588 0-16.112 10.488-28.044 26.22-28.044 10.716 0 19.836 5.472 23.864 15.808l-9.88 3.876c-2.28-6.308-7.524-9.5-14.136-9.5-9.424 0-15.352 6.308-15.352 17.632 0 11.78 6.46 17.556 16.264 17.556 8.208 0 12.692-4.028 12.692-9.652v-.76H78.815v-9.652zm-30.935 25.46l-7.296 6.536-6.688-7.676c-4.408 3.648-9.804 5.624-15.96 5.624C7.98 169.412 0 164.776 0 155.884c0-7.904 5.928-12.54 12.084-16.264-2.28-2.204-6.08-6.46-6.08-12.084 0-7.98 7.752-12.692 15.048-12.692 7.676 0 14.288 5.396 14.288 12.692 0 6.004-3.952 10.184-8.816 13.68l6.916 7.6c.988-2.356 1.672-5.016 2.128-7.904l9.576 1.292c-.988 5.472-2.66 10.184-5.016 14.136l7.752 8.588zM15.96 127.46c0 2.508 2.356 5.776 3.876 7.524 3.496-2.204 6.004-4.484 6.004-7.448 0-2.432-1.52-4.636-4.712-4.636-2.736 0-5.168 1.672-5.168 4.56zm1.444 33.212c4.104 0 7.6-1.368 10.412-3.8l-9.196-10.488c-4.712 3.04-8.588 5.928-8.588 9.728 0 3.192 3.116 4.56 7.372 4.56zM176.983 57.196c8.588 0 13.528 5.168 13.528 13.756V95.5h-10.26V74.22c0-2.736 0-8.056-6.46-8.056-7.752 0-7.752 7.676-7.752 13.072V95.5h-10.336V58.032h10.336v3.876c2.736-3.496 6.688-4.712 10.944-4.712zm-46.388 0c10.26 0 16.568 5.624 16.568 14.592V95.5h-9.424l-.76-4.332c-2.66 3.8-6.84 5.168-10.64 5.168-8.132 0-13.984-5.244-13.984-12.616 0-4.408 1.976-7.6 5.396-9.348 2.432-1.216 5.472-1.748 9.272-1.748h9.88v-.836c0-3.42-2.508-5.624-6.764-5.624-3.344 0-6.536 1.444-9.576 4.864l-7.448-6.232c4.56-5.168 10.792-7.6 17.48-7.6zm-2.584 30.628c4.788 0 8.816-3.268 8.892-7.6h-8.436c-2.128 0-3.572.304-4.484.988-.912.608-1.368 1.52-1.368 2.66 0 2.28 1.9 3.952 5.396 3.952zm-18.749-11.172c0 1.14-.076 2.204-.228 3.572H83.878c.456 3.952 3.116 6.764 8.512 6.764 3.116 0 6.08-1.064 8.436-3.876l7.144 6.308c-4.028 4.484-9.196 6.916-15.656 6.916-13.376 0-18.696-9.576-18.696-19.38 0-9.576 5.168-19.76 18.088-19.76 11.704 0 17.556 8.512 17.556 19.456zm-25.46-4.256h15.656c-.152-4.104-3.572-6.612-7.828-6.612-5.244 0-7.372 3.572-7.828 6.612z"/><use href="#B" x="-74.665" y="-146"/><path d="M26.524 96.792C10.716 96.792.38 85.848.38 68.976.38 52.028 10.64 41.16 26.448 41.16c11.476 0 20.064 5.7 23.94 15.808l-9.88 3.876c-2.204-6.308-7.22-9.5-14.06-9.5-9.728 0-15.352 6.308-15.352 17.556s5.776 17.632 15.428 17.632c6.992 0 11.932-3.268 13.984-9.728l10.032 3.8c-3.724 10.412-12.464 16.188-24.016 16.188z"/></g><g fill-rule="evenodd" fill="#59b322"><path d="M287.024 37.5v202h-13v-202h13zM328.573 159v79.752h-13V159h13zm85.996 0v79.752h-13V159h13z"/><use href="#D"/><use href="#D" y="-20.447"/><use href="#D" y="-40.893"/><path d="M202.024 228.5h223v13h-223v-13zm54.844-172.543l31 31-9.193 9.192-31-31 9.193-9.192z"/><path d="M315.217 67.693l-32 32-9.192-9.192 32-32 9.192 9.192zM280.024 13c-27.393 0-49.5 21.993-49.5 49s22.107 49 49.5 49 49.5-21.993 49.5-49-22.107-49-49.5-49zm-62.5 49c0-34.296 28.037-62 62.5-62s62.5 27.704 62.5 62-28.037 62-62.5 62-62.5-27.704-62.5-62z"/><path d="M370.521 65c-7.149 0-13.055 5.365-13.896 12.284L355.93 83h-17.084c-3.006 8.285-7.736 15.744-13.751 21.954 2.372 2.496 5.721 4.046 9.426 4.046h58c7.18 0 13-5.82 13-13s-5.82-13-13-13h-7.408l-.695-5.716C383.577 70.365 377.671 65 370.521 65zm-25.462 5c3.708-10.488 13.704-18 25.462-18 11.848 0 21.907 7.626 25.546 18.24A26.01 26.01 0 0 1 418.521 96c0 14.359-11.64 26-26 26h-58c-10.6 0-19.705-6.343-23.752-15.414l-1.973-4.421 3.671-3.156c7.333-6.305 12.76-14.695 15.354-24.213l1.276-4.685 4.855-.105.569-.006h10.538zM238.024 193.5v46h-13v-46h13z"/><path d="M213.291 204.807l27 27-9.193 9.192-27-27 9.193-9.192z"/><path d="M259.216 213.692l-27 27-9.192-9.192 27-27 9.192 9.192z"/></g><defs ><path id="B" d="M139.138 242.336c-5.244 0-9.272-3.116-9.272-10.108v-43.7h10.26v42.636c0 1.748.912 2.204 2.432 2.204.76 0 1.672-.152 2.66-.38v8.132c-2.204.836-4.332 1.216-6.08 1.216z"/><path id="C" d="M210.793 149.652c0 1.14-.076 2.204-.228 3.572h-25.156c.456 3.952 3.116 6.764 8.512 6.764 3.116 0 6.08-1.064 8.436-3.876l7.144 6.308c-4.028 4.484-9.196 6.916-15.656 6.916-13.376 0-18.696-9.576-18.696-19.38 0-9.576 5.168-19.76 18.088-19.76 11.704 0 17.556 8.512 17.556 19.456zm-25.46-4.256h15.656c-.152-4.104-3.572-6.612-7.828-6.612-5.244 0-7.372 3.572-7.828 6.612z"/><path id="D" d="M301.024 198.637h123.883v13H301.024v-13z"/></defs></svg>
